dist/svgs/trash.svg

<!-- Generated by IcoMoon.io -->
<svg version="1.1" xmlns="http://www.w3.org/2000/svg" width="24" height="24" viewBox="0 0 24 24">
<title>trash</title>
<path d="M24 4h-7v-4h-10v4h-7v2h3v18h18v-18h3v-2zM9 2h6v2h-6v-2zM19 22h-14v-16h14v16z"></path>
<path d="M11 10h2v8h-2v-8z"></path>
<path d="M7 10h2v8h-2v-8z"></path>
<path d="M15 10h2v8h-2v-8z"></path>
</svg>

<svg xmlns="http://www.w3.org/2000/svg" width="24" height="24"><path d="M24 4h-7V0H7v4H0v2h3v18h18V6h3V4zM9 2h6v2H9V2zm10 20H5V6h14v16z"/><path d="M11 10h2v8h-2v-8zM7 10h2v8H7v-8zM15 10h2v8h-2v-8z"/></svg>
